libs/ui/packages/crypto-icons/src/svg/GENERIC.svg

<svg width="24" height="24" viewBox="0 0 24 24" fill="none">
<path fill-rule="evenodd" clip-rule="evenodd" d="M15.7514 7.39125C16.3795 7.88406 16.9022 8.49802 17.2884 9.19669C17.6747 9.89537 17.9166 10.6645 17.9999 11.4585L15.8647 10.9275C15.6637 10.2565 15.2909 9.64969 14.783 9.16726C14.2752 8.68483 13.6501 8.34354 12.9697 8.17725C10.8202 7.6425 8.64969 8.9205 8.12094 11.0317C7.59219 13.143 8.90844 15.288 11.0587 15.8228C11.7383 15.9943 12.451 15.9856 13.1263 15.7975C13.8016 15.6095 14.4161 15.2485 14.9092 14.7502L17.0444 15.2805C16.597 15.9428 16.0214 16.5087 15.3515 16.9448C14.6816 17.3808 13.9312 17.6782 13.1444 17.8193L12.5369 20.25L10.5899 19.7663L11.0729 17.835C10.7424 17.7806 10.4169 17.6996 10.0994 17.5928L9.61719 19.524L7.67019 19.0395L8.27769 16.6088C6.49419 15.2025 5.59644 12.8617 6.17469 10.548C6.75294 8.23425 8.64744 6.58725 10.8847 6.18075L11.4922 3.75L13.4392 4.23375L12.9562 6.165C13.2867 6.21936 13.6123 6.30038 13.9297 6.40725L14.4119 4.476L16.3589 4.9605L15.7514 7.39125Z" fill="#EFB914"/>
</svg>

<svg width="24" height="24" viewBox="0 0 24 24" fill="none"><path fill="#efb914" fill-rule="evenodd" d="M15.751 7.391A5.96 5.96 0 0 1 18 11.46l-2.135-.531a4.02 4.02 0 0 0-2.895-2.75c-2.15-.536-4.32.742-4.85 2.854-.528 2.111.788 4.256 2.939 4.79a4.03 4.03 0 0 0 3.85-1.072l2.135.53a5.98 5.98 0 0 1-3.9 2.54l-.607 2.43-1.947-.484.483-1.931a6 6 0 0 1-.974-.242l-.482 1.931-1.947-.485.608-2.43c-1.784-1.407-2.682-3.747-2.103-6.061s2.472-3.96 4.71-4.367l.607-2.431 1.947.484-.483 1.931q.496.081.974.242l.482-1.931 1.947.484z" clip-rule="evenodd"/></svg>
